X: 36300
T: Seamus McManus
R: waltz
M: 3/4
K: Amajor
|f2e2c2|A3 BcA|F2A2F2|E4 E/F/G|
A2c2f2|e2c2A2|B3 _B=Bc|B3 dcd|
f2e2c2|A3 BcA|F2A2a2|f3 gaf|
e2c2A2|BF3G2|A3 GAB|1 A3 dcd:|2 A3 EFA||
EA ce cA|EA ce cA|FA df dA|FA df dA|
EA ce cA|EA ce cA|EG Bc Bc|dc BA GF|
EA ce cA|EA ce cA|F2A2a2|f3 gaf|
e2c2A2|BF3G2|A3 GAB|A4 AB|
ce ac' ae|ce ac' ae|df ad' af|df ad' af|
ce ac' ae|ce ac' ae|Be gb ge|Be gb ge|
ce ac' ae|ce ac' ae|d2f2a2|d'4 c'b|
c'2 b2 a2|bf3g2|a3 gab|a6||

